X: 24607
T: Mac Davis
R: reel
M: 4/4
K: Aminor
|:A,D FA dA FD|A,D FA dA FD|CE Gc ed cB|AG FE DC B,_B,|
A,D FA dA FD|A,D FA dA FD|CE Gc eg fe|1 dc Bc dA FD:|2 dc Bc d2 z2|
|:a2>f2dz d2|fefg a z~af|g2>e2cz c2|edef g z~fe|
a2>f2dz d2|fefg az ~gf|1 gz ce z dB-|Bc de fe fg:|2 gfef g_bag|fedc dAFD|

